X:2547
T:Cantar de Ronda (CT 100)
R:Ronda
C:Tradicional
S:Música Tradicional Asturiana, (C) Tello & Tito. Asturies, 2001.
S:http://pagina.de/MusTradAst <telloytito@asturies.org>
N:Canción de Ronda, transcrita en La Felguera, ayuntamiento de Llangréu.
O:La Felguera (Llangréu)
A:Asturies
Z:Cancioneru de Torner 100
M:2/4
L:1/8
Q:1/4=76
W:Yo no vuelvo más a Sama,
W:ya no vuelvo más a Sama,
W:que llevó la puente el río,
W:que llevó la puente el río.
W:Hai una chalana nueva,
W:pásala, galán, conmigo.
K:G
B/c/
|dd cc|[M:3/4](d3/2(3e/4d/4c/4)B2 z B/c/|
[M:2/4]dd cc|(d3/2(3e/4d/4c/4)B A/B/|
cB A(G/A/)|[M:3/4](B3/2(3c/4B/4A/4)G2 z2 [M:2/4] :||


